X:1
T:Pazzo il mio core
T:E pazzo il mio core
T:Barbara Strozzi
T:Source : Arie---Venetia---F.Magni (Gardano)---1664. Editor André Vierendeels (18/03/15).
T:Notes : Original clefs : C1, F4 Editorial accidentals above the staff
C:Barbara Strozzi
%%score 1 2
L:1/8
Q:1/4=64
M:6/8
K:F
V:1 treble nm="Soprano" snm="S"
V:2 bass nm="BC" snm="BC"
V:1
 z2 z2 z d | ^c>de A2 d/e/ |: f>ed ddf | ecc d B2 | c F2 B E2 | F>GA c>cc | c>BA G>AB | %7
w: E|paz- zo'il mio co- re, è|paz- zo'il mio co- re se'ogn'|hor de- li- ran- *||* te a do- ra'un sem-|bian- te ch'è tut- to ri-|
w: E|paz- zo'il mio co- re, è|paz- zo'il mio co- re, hor|ri- de hor s'uc- ci-||* de pian- gen- do sua|sor- te hor bra- ma la|
 A>=Bc B>cd | c>de e>dc | ccG ^F>GA | D2 G/A/ B>AG | G>Gd ^c>de | A2 d/e/ f>ed | ddg g3- | %14
w: go- re'a a- do- ra'un sem-|bian- te ch'è tut- to ri-|go- re, è paz- zo'il mio|co- re, è paz- zo'il mio|co- re, è paz- zo'il mio|co- re, è paz- zo'il mio|co- re, è paz-|
w: mor- te, hor que- sta de-|ri- de ma s'ei per quel|vol- to, è paz- zo'il mio|co- re, è paz- zo'il mio|co- re, è paz- zo'il mio|co- re, è paz- zo'il mio|co- re, è paz-|
 g3- gfe | f e2 d3 | z6 | z z A d/c/d/f/e/d/ | cAd z G z | A z e f3 | e2 e e3 | d2 d d3 | c2 c c3 | %23
w: * * zo'il mio|co- * re,||s'a- di- * * * * *|* ra sos- pi-|ra si la-|gna, si la-|gna s'ac- cor-|a, s'ac- co-|
w: * * zo'il mio|co- * re,||hor que- * * * * *|* sta de ri-|de ma s'ei|per quel vol-|to, hor que-|sta de- ri-|
 B2 c A=Bc | =Bcd c d/c/d/e/ | fdc =BBe | e6- | e6- | e E^F ^GFG | A^GA =BAB | cde fef | ggf eef | %32
w: ra fre- ne- * *||* ti- ca'o- gn'ho- ra nel|duo-|||||* lo de- li- ra, de-|
w: de ma s'ei _ _|per _ _ quel vol- * * *||to,-||* vol- * * * *|||* to, mà s'ei per quel|
 eee Ade | d/c/ =B2 A2 B | AAB AAA | DGA G/F/ E2 | D6 | z6 | z z A dde | f/e/ee Add | d/c/cc BBc | %41
w: li- ra nel duo- lo de-|li- * * ra, de-|li- ra, de- li- ra nel|duo- lo de- li- * *|ra,||mà s'e- gli sta'in|pe- * ne per chi lo dis-|prez- * za e ben da ca-|
w: vol- to si strug- ge nol|fug * * ge, ma|s'ei per quel volto si strug-|ge nol fug- * * *|ge,||ma s'ei per quel|vol- * to si strug- ge nol|fug- * ge a fè ch'e- gli'e|
 A c2 z f2 | d g2 z e2 | c A2 z F2 | B A3 G2 | F A/B/c/d/ c d/e/f/g/ | f z c FGA | B/A/ G2 F2 c | %48
w: te- * *||||ne, _ _ _ _ _ _ _ _ _|_ e ben da ca-|te- * * ne, e|
w: stol- to si|strug- ge, sol|fug- ge a|fè ch'e- glie|stol- * * * * * * * * *|to e se ch'e- gli'e|stol- * * te. e|
 A =B/c/d B c/d/e | A2 =B/c/ d/c/ B2- | B ^c=B/c/ d/c/ B2 |"^#" A^GF/G/ A>=Bc- | cdc/d/ e/d/ c2- | %53
w: co- me _ _ tal lo _ _|tien le _ ga- * *||||
w: co- me _ _ tal si _ _|cru- cia * in _ fie-||||
 cde d/c/ =B2 | A2 f d e/f/g | e f/g/a d2 e/f/ | g/f/ e3 ^fe/f/ |"^-natural" g/f/ e2 d^cB/c/ | %58
w: * to a- mo- * *|re, è co- me _ _|tal lo _ _ tien le- *|ga- * * * * *||
w: * ro ar- do- * *|re, e co- me _ _|tal si * * cru- cia _|in _ fie- * * *||
 d>ef Ade/d/ | ^cde f e2 |[M:9/8] d2 d ^c>de A2 d/e/ :| %61
w: |* to a- mo- *|re, è paz- zo'il mio co- re, è|
w: |* ro ar- do- *|re, è paz- zo'il mio co- r, *|
V:2
 z2 z D,3 | A,2 G, F,2 G, |: A,2 A,, D,2 D | C3 B,3 | A,3 G,3 | F,3 F,2 G, | A,2 B, C2 C, | %7
 F,2 F, G,2 G, | A,2 E, F,2 G, | C,3 D,2 C, | B,,2 A,, G,,2 D, | G,2 G, A,2 G, | F,2 E, D,2 A, | %13
 D2 C B,2 A, | G,2 A, B,A,G, | A, A,,2 D,DC | B,A,G, A, A,,2 | D,3 D,3 | A,2 F, B,3 | %19
 A, z A, DCB, | CB,A, CB,A, | B,A,G, B,A,G, | A,G,F, A,G,F, | G,F,E, F,E,D, | E,3 A,3 | D,3 E,3 | %26
 z E,^F, G,F,^G, | A,^G,A, =B,A,B, | CC,D, E,D,E, | F,E,F, G,F,G, | A,=B,C D2 C | B,2 G, A,2 G, | %32
 A,2 G, F, D,2 | E,3 A,,2 G,, | D,2 C, D,2 C, | B,, G,,2 A,,3 | D,2 D CB,A, | B,A,G, A, A,,2 | %38
 D,3 D3 | C3 B,3 | A,3 G, E,2 | F,2 G, A,2 B, | G,2 G, C2 C, | F,3 B,2 B,, | G,, F,,2 C,3 | F,,6- | %46
 F,,2 A,, B,,2 F,, |"^-natural" B,, C,2 F,,F,E, | F,2 D, G,2 C, | F,2 E, D,3 | E,3 D,3 | %51
 C, =B,,2 A,,3 | G,, F,,2 E,,3 | D,,3 E,,3 |"^-natural" A,,2 A, B,2 G, | C2 F, B,2 A, | G,3 A,3 | %57
 G,3 F, E,2 | D,3 C, B,,2 | A,,F,,G,, A,,3 |[M:9/8] D,3 A,2 G, F,2 G, :| %61

